X: 34292
T: Requiem Of A Fish
R: reel
M: 4/4
K: Dmajor
|:d2 F2 B2 D2|E2 A2 F4|E<D d2 c2 e>d|B8|
d2 F2 c2 D2|E2 A2 F4|E<D d2 c2 A2|E<DD6:|
|:A2 E2 c2 E2|A2 E2 c2 E2|d2 F2 c2 F2|B8|
A2 E2 c2 E2|A2 d>e c4|d2 E<F c3 B/A/|E<DD6:|

